src/static/logos/django.svg

<?xml version="1.0" encoding="UTF-8" standalone="no"?>
<svg width="256px" height="326px" viewBox="0 0 256 326" version="1.1" xmlns="http://www.w3.org/2000/svg" xmlns:xlink="http://www.w3.org/1999/xlink" preserveAspectRatio="xMidYMid">
	<g fill="#2BA977">
		<path d="M114.78426,0 L168.062259,0 L168.062259,244.191113 C140.771855,249.353285 120.681181,251.384192 98.944855,251.384192 C33.8730137,251.316268 0,222.24509 0,166.412124 C0,112.616857 35.9300792,77.7042732 91.6079875,77.7042732 C100.247663,77.7042732 106.830273,78.3835061 114.78426,80.4212057 L114.78426,0 Z M116.651443,124.426648 C110.411677,122.388948 105.269013,121.709714 98.6864035,121.709714 C71.7388438,121.709714 56.1737143,138.147157 56.1737143,166.953436 C56.1737143,194.998972 71.0531556,210.485489 98.3435585,210.485489 C104.24048,210.485489 109.040299,210.152664 116.651443,209.133814 L116.651443,124.426648 Z"></path>
		<path d="M255.186899,84.2605714 L255.186899,206.52254 C255.186899,248.628204 252.032731,268.876144 242.775936,286.332436 C234.136261,303.116288 222.753832,313.698741 199.234715,325.388343 L149.796571,302.090646 C173.315688,291.161784 184.698118,281.503088 191.966417,266.763729 C199.577559,251.691545 201.977469,234.235253 201.977469,188.319092 L201.977469,84.2605714 L255.186899,84.2605714 L255.186899,84.2605714 Z"></path>
		<path d="M196.608,0 L249.885999,0 L249.885999,54.1348831 L196.608,54.1348831 L196.608,0 L196.608,0 Z"></path>
	</g>
</svg>

<svg width="256" height="326" xmlns="http://www.w3.org/2000/svg" preserveAspectRatio="xMidYMid"><g fill="#2BA977"><path d="M114.784 0h53.278v244.191c-27.29 5.162-47.38 7.193-69.117 7.193C33.873 251.316 0 222.245 0 166.412c0-53.795 35.93-88.708 91.608-88.708 8.64 0 15.222.68 23.176 2.717V0zm1.867 124.427c-6.24-2.038-11.382-2.717-17.965-2.717-26.947 0-42.512 16.437-42.512 45.243 0 28.046 14.88 43.532 42.17 43.532 5.896 0 10.696-.332 18.307-1.351v-84.707z"/><path d="M255.187 84.26v122.263c0 42.105-3.154 62.353-12.411 79.81-8.64 16.783-20.022 27.366-43.541 39.055l-49.438-23.297c23.519-10.93 34.901-20.588 42.17-35.327 7.61-15.072 10.01-32.529 10.01-78.445V84.261h53.21zM196.608 0h53.278v54.135h-53.278V0z"/></g></svg>
